!!!!SEGMENT: pl-sa--l-1636--003_anonim--preludium.krn
!!!cenid: 17xx:710
!!!COM: Anonim
!!!COM-rismID: pe30004985
!!!CDT:
!!!CNT:
!!!OTL: Preludium
!!!PDT:
!!!AGN: Secular; Prelude
!!!SMS-siglum: PL-SA
!!!SMS-shelfmark: L 1636
!!!SMS-shelfwork: 003 W
!!!SMS-variant:
!!!SMS-altvar:
!!!NIFC-rismSourceID: 1001076168
!!!NIFC-rismChildID: 1001076168
!!!NIFC-islandoraID:
!!!URL-pdf-islandora:
!!!URL-scan:
!!!IIIF:
!!!ONB-nifc: 1v, skan 0005, s. 1-2
!!!AIN: 2 empty
!!!key:
**kern	**kern
*part2	*part1
*staff2	*staff1
*Iempty	*Iempty
*I"	*I"
*clefF4	*clefC1
*k[]	*k[]
*C:	*C:
*M2/2	*M2/2
*met(c|)	*met(c|)
=1	=1
*	*^
!LO:TX:a:t=P:problem=8\right&colon; global	!LO:TX:a:t=P:problem=2\right&colon; global	!
*2\right	*2\right	*2\right
8C/L	2ee/	2cc\
8D/	.	.
8E/	.	.
8F/J	.	.
!	!	!LO:TX:a:t=P:problem=4\right&colon; global
8G\L	2dd/	4cc\
8A\	.	.
8B\	.	[4b\
8G\J	.	.
*clefC4	*	*
=2	=2	=2
8A\L	2cc/	4b\]
8B\	.	.
8c\	.	4a\
8d\J	.	.
!LO:TX:a:t=P:problem=mixed beam	!	!
8e\L	2b/	4a\
8E/	.	.
8G/	.	4g\
8E/J	.	.
=3	=3	=3
8F/L	2a/	4g\
8G/	.	.
8A/	.	4f\
8B/J	.	.
!LO:TX:a:t=P:problem=mixed beam	!	!
8c\L	2g/	4f\
8C/	.	.
!	!LO:TX:a:t=P:problem=papier uszkodzony, brak nuty	!
8E/	.	4e\yy
8C/J	.	.
=4	=4	=4
8D/L	2f/	4e\
8E/	.	.
8F/	.	4d\
8G/J	.	.
8A/L	2e/	4d\
8G/	.	.
8A/	.	4c\
8E/J	.	.
=5	=5	=5
*clefF4	*	*
8F\L	2d/	4c\
8D\	.	.
8G\	.	4B\
8F\J	.	.
8E\L	2c/	4B\
8C\	.	.
8F\	.	4A\
8E\J	.	.
=6	=6	=6
8D\L	2B/	4A\
8BB\	.	.
8E\	.	4G\
8D\J	.	.
8C/L	2A/	4G\
8AA/	.	.
8D/	.	4F\
8DD/J	.	.
!!LO:LB:g=original
=7	=7	=7
2GG/	8B/L	8G\L
.	8B/	8G\
.	8c/	8A\
.	8d/J	8B\J
!	!	!LO:N:vis=4.
8C\L	4e/	4c\
8C\	.	.
8D\	4d/	4B\
8E\J	.	.
=8	=8	=8
4F\	8c/L	8A\L
.	8c/	8A\
4E\	8d/	8B\
.	8e/J	8c\J
8D\L	4f/	4d\
8D\	.	.
8E\	4e/	4c\
8F\J	.	.
=9	=9	=9
4G\	8d/L	8B\L
.	8d/	8B\
4F\	8e/	8c\
.	8f/J	8d\J
8E\L	4g/	4e\
8E\	.	.
8F\	4f/	4d\
8G\J	.	.
=10	=10	=10
8A\L	2e/	2c\
8G\	.	.
8F\	.	.
8E\J	.	.
!LO:TX:a:t=P:problem=mixed beam	!	!
8F\L	2d/	4c\
8D\	.	.
8G\	.	4B\
8GG/J	.	.
*	*v	*v
=11	=11
1CC 1GG 1C	1c 1e 1g
==	==
*-	*-
!!!system-decoration: [(p1)]
!!!ENC: Anna Matuszewska
!!!END: 2020-12-07
!!!ENC: Andrzej Borzym
!!!END: 2020-06-11
!!!YEC: Copyright 2022 Narodowy Instytut Fryderyka Chopina (https://polishscores.org)
!!!YEM: License CC-BY-4.0 (https://creativecommons.org/licenses/by/4.0)
